X: 1310
T: The Fermoy Lasses
R:Reel
N:Collected by F. O'Neill
B:O'Neill's 1310
Z:Transcribed by Trish O'Neil
N:Deleted "Segno" after first bar line [jc]
M:C|
L:1/8
K:G
BA"Segno"|G(E {F}(3EDE) B>(E {F}(3EDE)|G>(E {F}(3EDE) BcBA\
|1G>(E {F}(3EDE) B>(E {F}(3EDE)|AFDF AcBA:|2G2"W"(GF) GGdG|AFDF"D.S."A2||
(BA)|(3GAG BG dGBG|(3GAG Bd efg2|(3GAG BG dGBG|AFDF AcBA|
(3GAG BG dGBG|(3GAG Bd efg2|af{a}ge dedB|AFDF Ac"D.S."BA|]


